X: 1132
T: Turkey In The Straw
B: steve's tunes
M:4/4
Q: 1/4=140
K:Gmajor
V:1 
BA|:"G"GFGA G2 B,C|DEDB, D2 GA|B2 B2 BAGA|"D"B2 A2 A2 BA|
 "G"GFGA G2 B,C|DEDB, D2 GA|B d2 e "D"dBGA|1"G"B2 G2 G2 BA:|2"G"B2 G2 G2 d2||
 |:"G"B d2 B d2 d2|B d2 B d2 d2|"C"c e2 c e2 e2|c e2 c e2 e2|
 "G"g2 g2 d2 d2|B2 B2 A2 GA|B d2 e "D"dBGA|1"G"B2 A2 G2 d2:|2"G"B2 A2 G2 z2||
% abcbook-tune_id 629b934f3611029d74942dce


% abcbook-boost 6
% abcbook-tablature 
% abcbook-transpose 
% abcbook-lastupdated 1655868751606
% abcbook-soundfonts 
% abcbook-repeats 3


